X:1
T:Goldberg Variations: Variation IX
T:BWV 988
T:J. S. Bach
%%score { ( 1 3 ) | 2 }
L:1/8
M:4/4
K:G
V:1 treble nm="Harp"
V:3 treble 
V:2 bass 
V:1
 BABc dAdc | Bd g2 ga/g/ f2 | gfga bfba | ga/b/ c'2- c'b/a/ bB | ^cBc^d eBe=d | %5
 cd/e/ =f2- fe/d/ e/^f/g- | g f2 e fgag | f2 e2 d4 | BABc dAdc | Bd g2 ga/g/ f2 | gfga bfba | %11
 ga/b/ c'2- c'b/a/ bB | ^cBc^d eBe=d | cd/e/ =f2- fe/d/ e/^f/g- | g f2 e fgag | f2 e2 d4 | %16
 fdef gdga | be a2 ag/f/ g z | z e2 d/=c/ B/A/G/F/ G/A/B/G/ |{=F} E>^F ^D2 E z B2- | %20
 B A2 ^G Ac/B/ c/e/d/c/ | B2 ^c2 d4- | dgfe dg/f/ g/a/b | ea g/4f/4g/4f/4g/4f/4g/ g4 | fdef gdga | %25
 be a2 ag/f/ g z | z e2 d/=c/ B/A/G/F/ G/A/B/G/ |{=F} E>^F ^D2 E z B2- | B A2 ^G Ac/B/ c/e/d/c/ | %29
 B2 ^c2 d4- | dgfe dg/f/ g/a/b | ea g/4f/4g/4f/4g/4f/4g/ g4 |] %32
V:2
 G,,2 G,2- G,F,/E,/ F,D, | G,A,B,C D3 ^D | E2[K:treble] z C G,D GA/B/ | cBAd G4- | %4
 G[K:bass] G,2 F, E,E/^D/ E2- | E E,2 D, C,C/B,/ C/D/E/D/ | %6
 ^C/A,/D/C/ B,/A,/B,/^G,/ A,/B,/A,/=G,/ F,/E,/D,/^C,/ | %7
 D,/^C,/B,,/A,,/ G,,/E,,/A,, D,,F,,/A,,/ D,2 | G,,2 G,2- G,F,/E,/ F,D, | G,A,B,C D3 ^D | %10
 E2[K:treble] z C G,D GA/B/ | cBAd G4- | G[K:bass] G,2 F, E,E/^D/ E2- | E E,2 D, C,C/B,/ C/D/E/D/ | %14
 ^C/A,/D/C/ B,/A,/B,/^G,/ A,/B,/A,/=G,/ F,/E,/D,/^C,/ | %15
 D,/^C,/B,,/A,,/ G,,/E,,/A,, D,,F,,/A,,/ D,2 | D, D2 C B,/A,/B,/C/ B,/A,/G,/F,/ | %17
 G, G2 F E/^D/E/F/ E/=D/C/B,/ | ^A,/E/F/G/ A=A, G,/A,/B,/G,/ E,/F,/G,/E,/ | CA,B,B,, E,,2 z E,- | %20
 E,C,D,E, A,,A, E,/D,/E,/F,/ | G,/A,/B,/G,/ A,/F,/G,/A,/ D,/E,/F,/G,/ F,/E,/D,/C,/ | %22
 B,,/G,,/A,,/B,,/ C,/D,/E,/F,/ G,/A,/B,/A,/ G,/F,/E,/D,/ | C,/B,,/C,/A,,/ D,E,, G,,B,,/D,/ G,2 | %24
 D, D2 C B,/A,/B,/C/ B,/A,/G,/F,/ | G, G2 F E/^D/E/F/ E/=D/C/B,/ | %26
 ^A,/E/F/G/ A=A, G,/A,/B,/G,/ E,/F,/G,/E,/ | CA,B,B,, E,,2 z E,- | E,C,D,E, A,,A, E,/D,/E,/F,/ | %29
 G,/A,/B,/G,/ A,/F,/G,/A,/ D,/E,/F,/G,/ F,/E,/D,/C,/ | %30
 B,,/G,,/A,,/B,,/ C,/D,/E,/F,/ G,/A,/B,/A,/ G,/F,/E,/D,/ | C,/B,,/C,/A,,/ D,E,, G,,B,,/D,/ G,2 |] %32
V:3
 x8 | GFGA BFBA | GB e2- ef/e/ d2 | edef gdgf | ef/g/ a2- ag/f/ gG | AGAB cGcB | %6
 AB/^c/ d2- dc/B/ c/d/e | e d2 ^c d4 | x8 | GFGA BFBA | GB e2- ef/e/ d2 | edef gdgf | %12
 ef/g/ a2- ag/f/ gG | AGAB cGcB | AB/^c/ d2- dc/B/ c/d/e | e d2 ^c d4 | x8 | dB^c^d eBef | %18
 g^c =f2- fe/^d/ e z | z d/4c/4d/4c/4 d/4c/4d/4c/4B/A/ G/F/E/^D/ E/F/G/E/ | %20
{D} C>D D/4C/4D/4C/4D/4C/4D/4C/4 C z =G2- | G F2 E FA/G/ A/=c/B/A/ | G2 A2 B4- | Bedc B4 | x8 | %25
 dB^c^d eBef | g^c =f2- fe/^d/ e z | z d/4c/4d/4c/4 d/4c/4d/4c/4B/A/ G/F/E/^D/ E/F/G/E/ | %28
{D} C>D D/4C/4D/4C/4D/4C/4D/4C/4 C z =G2- | G F2 E FA/G/ A/=c/B/A/ | G2 A2 B4- | Bedc B4 |] %32

